build/assets/images/svg/icons/review/stars-5.svg

<svg width="88" height="16" viewBox="0 0 88 16" fill="none" xmlns="http://www.w3.org/2000/svg">
<path d="M6.84466 2.30069C7.37637 1.45531 8.62103 1.45531 9.15274 2.30069L10.4387 4.34519C10.6257 4.64263 10.9229 4.85608 11.2669 4.94005L13.6313 5.51722C14.6089 5.75587 14.9935 6.92604 14.3445 7.68716L12.7749 9.5279C12.5465 9.7957 12.433 10.1411 12.4585 10.4904L12.6339 12.8916C12.7064 13.8845 11.6994 14.6077 10.7666 14.2327L8.51058 13.3259C8.18238 13.1939 7.81502 13.1939 7.48681 13.3259L5.23082 14.2327C4.29798 14.6077 3.29104 13.8845 3.36354 12.8916L3.53887 10.4904C3.56438 10.1411 3.45086 9.7957 3.22251 9.5279L1.65289 7.68716C1.00387 6.92604 1.38849 5.75587 2.36613 5.51722L4.73049 4.94005C5.07446 4.85608 5.37166 4.64263 5.55874 4.34519L6.84466 2.30069Z" fill="#FFA200"/>
<path d="M24.8447 2.30069C25.3764 1.45531 26.621 1.45531 27.1527 2.30069L28.4387 4.34519C28.6257 4.64263 28.9229 4.85608 29.2669 4.94005L31.6313 5.51722C32.6089 5.75587 32.9935 6.92604 32.3445 7.68716L30.7749 9.5279C30.5465 9.7957 30.433 10.1411 30.4585 10.4904L30.6339 12.8916C30.7064 13.8845 29.6994 14.6077 28.7666 14.2327L26.5106 13.3259C26.1824 13.1939 25.815 13.1939 25.4868 13.3259L23.2308 14.2327C22.298 14.6077 21.291 13.8845 21.3635 12.8916L21.5389 10.4904C21.5644 10.1411 21.4509 9.7957 21.2225 9.5279L19.6529 7.68716C19.0039 6.92604 19.3885 5.75587 20.3661 5.51722L22.7305 4.94005C23.0745 4.85608 23.3717 4.64263 23.5587 4.34519L24.8447 2.30069Z" fill="#FFA200"/>
<path d="M42.8447 2.30069C43.3764 1.45531 44.621 1.45531 45.1527 2.30069L46.4387 4.34519C46.6257 4.64263 46.9229 4.85608 47.2669 4.94005L49.6313 5.51722C50.6089 5.75587 50.9935 6.92604 50.3445 7.68716L48.7749 9.5279C48.5465 9.7957 48.433 10.1411 48.4585 10.4904L48.6339 12.8916C48.7064 13.8845 47.6994 14.6077 46.7666 14.2327L44.5106 13.3259C44.1824 13.1939 43.815 13.1939 43.4868 13.3259L41.2308 14.2327C40.298 14.6077 39.291 13.8845 39.3635 12.8916L39.5389 10.4904C39.5644 10.1411 39.4509 9.7957 39.2225 9.5279L37.6529 7.68716C37.0039 6.92604 37.3885 5.75587 38.3661 5.51722L40.7305 4.94005C41.0745 4.85608 41.3717 4.64263 41.5587 4.34519L42.8447 2.30069Z" fill="#FFA200"/>
<path d="M60.8447 2.30069C61.3764 1.45531 62.621 1.45531 63.1527 2.30069L64.4387 4.34519C64.6257 4.64263 64.9229 4.85608 65.2669 4.94005L67.6313 5.51722C68.6089 5.75587 68.9935 6.92604 68.3445 7.68716L66.7749 9.5279C66.5465 9.7957 66.433 10.1411 66.4585 10.4904L66.6339 12.8916C66.7064 13.8845 65.6994 14.6077 64.7666 14.2327L62.5106 13.3259C62.1824 13.1939 61.815 13.1939 61.4868 13.3259L59.2308 14.2327C58.298 14.6077 57.291 13.8845 57.3635 12.8916L57.5389 10.4904C57.5644 10.1411 57.4509 9.7957 57.2225 9.5279L55.6529 7.68716C55.0039 6.92604 55.3885 5.75587 56.3661 5.51722L58.7305 4.94005C59.0745 4.85608 59.3717 4.64263 59.5587 4.34519L60.8447 2.30069Z" fill="#FFA200"/>
<path d="M78.8447 2.30069C79.3764 1.45531 80.621 1.45531 81.1527 2.30069L82.4387 4.34519C82.6257 4.64263 82.9229 4.85608 83.2669 4.94005L85.6313 5.51722C86.6089 5.75587 86.9935 6.92604 86.3445 7.68716L84.7749 9.5279C84.5465 9.7957 84.433 10.1411 84.4585 10.4904L84.6339 12.8916C84.7064 13.8845 83.6994 14.6077 82.7666 14.2327L80.5106 13.3259C80.1824 13.1939 79.815 13.1939 79.4868 13.3259L77.2308 14.2327C76.298 14.6077 75.291 13.8845 75.3635 12.8916L75.5389 10.4904C75.5644 10.1411 75.4509 9.7957 75.2225 9.5279L73.6529 7.68716C73.0039 6.92604 73.3885 5.75587 74.3661 5.51722L76.7305 4.94005C77.0745 4.85608 77.3717 4.64263 77.5587 4.34519L78.8447 2.30069Z" fill="#FFA200"/>
</svg>

<svg width="88" height="16" fill="none" xmlns="http://www.w3.org/2000/svg"><path d="M6.845 2.3a1.367 1.367 0 012.308 0l1.286 2.045c.187.298.484.511.828.595l2.364.577c.978.239 1.362 1.409.713 2.17l-1.57 1.84a1.333 1.333 0 00-.315.963l.175 2.402c.072.992-.935 1.716-1.867 1.34l-2.256-.906a1.373 1.373 0 00-1.024 0l-2.256.907c-.933.375-1.94-.349-1.867-1.341l.175-2.402a1.333 1.333 0 00-.316-.962l-1.57-1.84a1.338 1.338 0 01.713-2.17L4.73 4.94c.344-.084.642-.297.829-.595l1.286-2.044zm18 0a1.367 1.367 0 012.308 0l1.286 2.045c.187.298.484.511.828.595l2.364.577c.978.239 1.362 1.409.713 2.17l-1.57 1.84a1.333 1.333 0 00-.316.963l.176 2.402c.072.992-.935 1.716-1.867 1.34l-2.256-.906a1.373 1.373 0 00-1.024 0l-2.256.907c-.933.375-1.94-.349-1.868-1.341l.176-2.402a1.333 1.333 0 00-.317-.962l-1.57-1.84a1.339 1.339 0 01.714-2.17l2.364-.578c.345-.084.642-.297.829-.595l1.286-2.044zm18 0a1.367 1.367 0 012.308 0l1.286 2.045c.187.298.484.511.828.595l2.364.577c.978.239 1.362 1.409.713 2.17l-1.57 1.84a1.333 1.333 0 00-.316.963l.176 2.402c.072.992-.935 1.716-1.867 1.34l-2.256-.906a1.373 1.373 0 00-1.024 0l-2.256.907c-.933.375-1.94-.349-1.867-1.341l.175-2.402a1.333 1.333 0 00-.317-.962l-1.57-1.84a1.339 1.339 0 01.714-2.17l2.364-.578c.345-.084.642-.297.829-.595l1.286-2.044zm18 0a1.367 1.367 0 012.308 0l1.286 2.045c.187.298.484.511.828.595l2.364.577c.978.239 1.362 1.409.713 2.17l-1.57 1.84a1.333 1.333 0 00-.316.963l.176 2.402c.072.992-.935 1.716-1.867 1.34l-2.256-.906a1.373 1.373 0 00-1.024 0l-2.256.907c-.933.375-1.94-.349-1.867-1.341l.175-2.402a1.333 1.333 0 00-.317-.962l-1.57-1.84a1.339 1.339 0 01.714-2.17l2.364-.578c.345-.084.642-.297.829-.595l1.286-2.044zm18 0a1.367 1.367 0 012.308 0l1.286 2.045c.187.298.484.511.828.595l2.364.577c.978.239 1.362 1.409.713 2.17l-1.57 1.84a1.333 1.333 0 00-.316.963l.176 2.402c.072.992-.935 1.716-1.867 1.34l-2.256-.906a1.373 1.373 0 00-1.024 0l-2.256.907c-.933.375-1.94-.349-1.867-1.341l.175-2.402a1.333 1.333 0 00-.317-.962l-1.57-1.84a1.339 1.339 0 01.714-2.17l2.365-.578c.344-.084.64-.297.828-.595l1.286-2.044z" fill="#FFA200"/></svg>
